X: 23263
T: Leaving Lismore
R: waltz
M: 3/4
K: Gmajor
G3A B2|d4 g2|e3d B2|d6|G3A B2|d4 d2|e3d B2|A6|
G3A B2|d4 g2|e3d B2|d6|d4 (3efg|B4 A2|BA G2 G2|G6||
g3f g2|e4 e2|e3d B2|d6|g3f g2|e4 e2|e3d B2|A6|
G3A B2|d4 g2|e3d B2|d6|d4 (3efg|B4 A2|BA G2 G2|G6||

